icons/modern/flying-saucer.svg

<svg width="32" height="32" viewBox="0 0 32 32" fill="none" xmlns="http://www.w3.org/2000/svg">
<path d="M10.0576 21.1406L4.21385 30H19.124L18.7099 23.4453L10.0576 21.1406Z" fill="url(#paint0_radial_18_13115)"/>
<path d="M10.0576 21.1406L4.21385 30H19.124L18.7099 23.4453L10.0576 21.1406Z" fill="url(#paint1_linear_18_13115)"/>
<g filter="url(#filter0_i_18_13115)">
<circle cx="16.8115" cy="12.7656" r="6.42969" fill="url(#paint2_radial_18_13115)"/>
</g>
<path d="M5.12046 18.8871C3.51109 17.598 2.51339 16.0669 1.87376 14.7639C1.43253 13.8651 1.79548 12.9077 2.63609 12.3636C5.31577 10.4027 8.58828 10.0984 10.808 10.4808L23.5033 13.8871C26.4683 14.8013 28.3246 17.2931 29.3889 19.4238C29.8527 20.3523 29.5697 21.4774 28.7026 22.0476C26.8161 23.2881 24.8654 23.8256 23.0963 24.0233C21.8882 24.1582 20.674 23.9631 19.4993 23.6505L9.27635 20.9296C7.76907 20.5284 6.32891 19.855 5.12046 18.8871Z" fill="url(#paint3_radial_18_13115)"/>
<path d="M5.12046 18.8871C3.51109 17.598 2.51339 16.0669 1.87376 14.7639C1.43253 13.8651 1.79548 12.9077 2.63609 12.3636C5.31577 10.4027 8.58828 10.0984 10.808 10.4808L23.5033 13.8871C26.4683 14.8013 28.3246 17.2931 29.3889 19.4238C29.8527 20.3523 29.5697 21.4774 28.7026 22.0476C26.8161 23.2881 24.8654 23.8256 23.0963 24.0233C21.8882 24.1582 20.674 23.9631 19.4993 23.6505L9.27635 20.9296C7.76907 20.5284 6.32891 19.855 5.12046 18.8871Z" fill="url(#paint4_radial_18_13115)"/>
<circle cx="20.6865" cy="9.77344" r="0.96875" fill="url(#paint5_radial_18_13115)"/>
<ellipse cx="4.43841" cy="12.1052" rx="1.25126" ry="0.3732" transform="rotate(-28.0667 4.43841 12.1052)" fill="url(#paint6_radial_18_13115)"/>
<ellipse cx="7.19991" cy="12.8414" rx="1.27677" ry="0.655431" transform="rotate(-19.6746 7.19991 12.8414)" fill="url(#paint7_radial_18_13115)"/>
<ellipse cx="11.3124" cy="13.9666" rx="1.28485" ry="0.842303" transform="rotate(-3.6053 11.3124 13.9666)" fill="url(#paint8_radial_18_13115)"/>
<ellipse cx="16.1522" cy="15.2672" rx="1.28485" ry="0.894319" transform="rotate(13.0664 16.1522 15.2672)" fill="url(#paint9_radial_18_13115)"/>
<ellipse cx="21.0154" cy="16.5718" rx="1.28485" ry="0.846694" transform="rotate(35.2255 21.0154 16.5718)" fill="url(#paint10_radial_18_13115)"/>
<ellipse cx="25.1251" cy="17.6575" rx="1.28485" ry="0.653551" transform="rotate(49.2821 25.1251 17.6575)" fill="url(#paint11_radial_18_13115)"/>
<ellipse cx="27.8705" cy="18.3835" rx="1.26492" ry="0.354941" transform="rotate(57.8142 27.8705 18.3835)" fill="url(#paint12_radial_18_13115)"/>
<path d="M1.87376 14.764C2.51339 16.067 3.51109 17.5981 5.12046 18.8871C6.32891 19.855 7.76907 20.5284 9.27635 20.9296L19.4993 23.6505C20.674 23.9632 21.8882 24.1582 23.0963 24.0233C24.8654 23.8257 26.8161 23.2881 28.7026 22.0476C29.1637 21.7444 29.4597 21.2843 29.5659 20.7802L1.79958 13.3601C1.63201 13.798 1.64069 14.2892 1.87376 14.764Z" fill="url(#paint13_radial_18_13115)"/>
<path d="M1.87376 14.764C2.51339 16.067 3.51109 17.5981 5.12046 18.8871C6.32891 19.855 7.76907 20.5284 9.27635 20.9296L19.4993 23.6505C20.674 23.9632 21.8882 24.1582 23.0963 24.0233C24.8654 23.8257 26.8161 23.2881 28.7026 22.0476C29.1637 21.7444 29.4597 21.2843 29.5659 20.7802L1.79958 13.3601C1.63201 13.798 1.64069 14.2892 1.87376 14.764Z" fill="url(#paint14_radial_18_13115)"/>
<path d="M1.87376 14.764C2.51339 16.067 3.51109 17.5981 5.12046 18.8871C6.32891 19.855 7.76907 20.5284 9.27635 20.9296L19.4993 23.6505C20.674 23.9632 21.8882 24.1582 23.0963 24.0233C24.8654 23.8257 26.8161 23.2881 28.7026 22.0476C29.1637 21.7444 29.4597 21.2843 29.5659 20.7802L1.79958 13.3601C1.63201 13.798 1.64069 14.2892 1.87376 14.764Z" fill="url(#paint15_radial_18_13115)"/>
<path d="M1.87376 14.764C2.51339 16.067 3.51109 17.5981 5.12046 18.8871C6.32891 19.855 7.76907 20.5284 9.27635 20.9296L19.4993 23.6505C20.674 23.9632 21.8882 24.1582 23.0963 24.0233C24.8654 23.8257 26.8161 23.2881 28.7026 22.0476C29.1637 21.7444 29.4597 21.2843 29.5659 20.7802L1.79958 13.3601C1.63201 13.798 1.64069 14.2892 1.87376 14.764Z" fill="url(#paint16_radial_18_13115)"/>
<defs>
<filter id="filter0_i_18_13115" x="10.3818" y="6.33594" width="13.3594" height="13.1094" filterUnits="userSpaceOnUse" color-interpolation-filters="sRGB">
<feFlood flood-opacity="0" result="BackgroundImageFix"/>
<feBlend mode="normal" in="SourceGraphic" in2="BackgroundImageFix" result="shape"/>
<feColorMatrix in="SourceAlpha" type="matrix" values="0 0 0 0 0 0 0 0 0 0 0 0 0 0 0 0 0 0 127 0" result="hardAlpha"/>
<feOffset dx="0.5" dy="0.25"/>
<feGaussianBlur stdDeviation="0.5"/>
<feComposite in2="hardAlpha" operator="arithmetic" k2="-1" k3="1"/>
<feColorMatrix type="matrix" values="0 0 0 0 0.360784 0 0 0 0 0.623529 0 0 0 0 0.815686 0 0 0 1 0"/>
<feBlend mode="normal" in2="shape" result="effect1_innerShadow_18_13115"/>
</filter>
<radialGradient id="paint0_radial_18_13115" cx="0" cy="0" r="1" gradientUnits="userSpaceOnUse" gradientTransform="translate(17.4599 24.1953) rotate(107.317) scale(17.2179 12.9134)">
<stop stop-color="#FFE940"/>
<stop offset="1" stop-color="#EAC82D"/>
</radialGradient>
<linearGradient id="paint1_linear_18_13115" x1="14.2803" y1="22.1875" x2="14.1474" y2="22.6953" gradientUnits="userSpaceOnUse">
<stop stop-color="#F9D230"/>
<stop offset="1" stop-color="#F9D230" stop-opacity="0"/>
</linearGradient>
<radialGradient id="paint2_radial_18_13115" cx="0" cy="0" r="1" gradientUnits="userSpaceOnUse" gradientTransform="translate(20.227 13.6214) rotate(-139.399) scale(9.13867)">
<stop stop-color="#66F5FF"/>
<stop offset="1" stop-color="#3BA9E3"/>
</radialGradient>
<radialGradient id="paint3_radial_18_13115" cx="0" cy="0" r="1" gradientUnits="userSpaceOnUse" gradientTransform="translate(22.6475 20.0703) rotate(-102.072) scale(22.1141 63.678)">
<stop stop-color="#F7F6F8"/>
<stop offset="1" stop-color="#808081"/>
</radialGradient>
<radialGradient id="paint4_radial_18_13115" cx="0" cy="0" r="1" gradientUnits="userSpaceOnUse" gradientTransform="translate(18.4195 10.3375) rotate(154.243) scale(15.7965 54.0343)">
<stop offset="0.454467" stop-color="#706F70" stop-opacity="0"/>
<stop offset="0.927279" stop-color="#706F70"/>
</radialGradient>
<radialGradient id="paint5_radial_18_13115" cx="0" cy="0" r="1" gradientUnits="userSpaceOnUse" gradientTransform="translate(19.7178 10.3216) rotate(-31.6883) scale(1.89839 4.00511)">
<stop offset="0.208749" stop-color="white" stop-opacity="0"/>
<stop offset="1" stop-color="white"/>
</radialGradient>
<radialGradient id="paint6_radial_18_13115" cx="0" cy="0" r="1" gradientUnits="userSpaceOnUse" gradientTransform="translate(4.50828 11.7045) rotate(94.1042) scale(0.846386 1.69222)">
<stop offset="0.449902" stop-color="#473B51"/>
<stop offset="1" stop-color="#383838"/>
</radialGradient>
<radialGradient id="paint7_radial_18_13115" cx="0" cy="0" r="1" gradientUnits="userSpaceOnUse" gradientTransform="translate(6.58817 12.1688) rotate(56.3987) scale(1.22813 1.47425)">
<stop stop-color="#5A5162"/>
<stop offset="1" stop-color="#372C40"/>
</radialGradient>
<radialGradient id="paint8_radial_18_13115" cx="0" cy="0" r="1" gradientUnits="userSpaceOnUse" gradientTransform="translate(10.4245 13.3911) rotate(37.2954) scale(1.96463 2.20549)">
<stop stop-color="#655771"/>
<stop offset="1" stop-color="#32273C"/>
</radialGradient>
<radialGradient id="paint9_radial_18_13115" cx="0" cy="0" r="1" gradientUnits="userSpaceOnUse" gradientTransform="translate(14.857 15.0637) rotate(4.62307) scale(2.80195 2.61213)">
<stop stop-color="#655771"/>
<stop offset="1" stop-color="#32273C"/>
</radialGradient>
<radialGradient id="paint10_radial_18_13115" cx="0" cy="0" r="1" gradientUnits="userSpaceOnUse" gradientTransform="translate(20.0163 16.9609) rotate(-13.975) scale(2.34718 2.8416)">
<stop stop-color="#6D5A7E"/>
<stop offset="1" stop-color="#3E2D4C"/>
</radialGradient>
<radialGradient id="paint11_radial_18_13115" cx="0" cy="0" r="1" gradientUnits="userSpaceOnUse" gradientTransform="translate(25.1712 18.2847) rotate(-86.8012) scale(1.22582 1.72131)">
<stop stop-color="#736282"/>
<stop offset="1" stop-color="#4B385B"/>
</radialGradient>
<radialGradient id="paint12_radial_18_13115" cx="0" cy="0" r="1" gradientUnits="userSpaceOnUse" gradientTransform="translate(27.8911 18.7892) rotate(-85.7651) scale(0.86673 1.28502)">
<stop stop-color="#746383"/>
<stop offset="1" stop-color="#564366"/>
</radialGradient>
<radialGradient id="paint13_radial_18_13115" cx="0" cy="0" r="1" gradientUnits="userSpaceOnUse" gradientTransform="translate(26.5225 24.0667) rotate(-146.794) scale(14.7154 7.42412)">
<stop stop-color="#7B7180"/>
<stop offset="1" stop-color="#817A86"/>
</radialGradient>
<radialGradient id="paint14_radial_18_13115" cx="0" cy="0" r="1" gradientUnits="userSpaceOnUse" gradientTransform="translate(19.835 18.2578) rotate(167.056) scale(15.9041 41.4161)">
<stop offset="0.632326" stop-color="#817A82" stop-opacity="0"/>
<stop offset="1" stop-color="#817A82"/>
</radialGradient>
<radialGradient id="paint15_radial_18_13115" cx="0" cy="0" r="1" gradientUnits="userSpaceOnUse" gradientTransform="translate(14.085 16.3828) rotate(15.8154) scale(15.1355 2.11479)">
<stop stop-color="#B8B2BD"/>
<stop offset="1" stop-color="#B8B2BD" stop-opacity="0"/>
</radialGradient>
<radialGradient id="paint16_radial_18_13115" cx="0" cy="0" r="1" gradientUnits="userSpaceOnUse" gradientTransform="translate(14.46 24.0667) rotate(-80.239) scale(4.05512 11.8053)">
<stop stop-color="#9F8A7A"/>
<stop offset="1" stop-color="#9F8A7A" stop-opacity="0"/>
</radialGradient>
</defs>
</svg>

<svg width="32" height="32" fill="none" xmlns="http://www.w3.org/2000/svg"><path d="M10.058 21.14 4.214 30h14.91l-.414-6.555-8.652-2.304Z" fill="url(#a)"/><path d="M10.058 21.14 4.214 30h14.91l-.414-6.555-8.652-2.304Z" fill="url(#b)"/><g filter="url(#c)"><circle cx="16.811" cy="12.766" r="6.43" fill="url(#d)"/></g><path d="M5.12 18.887c-1.609-1.289-2.607-2.82-3.246-4.123-.441-.899-.079-1.856.762-2.4 2.68-1.961 5.952-2.266 8.172-1.883l12.695 3.406c2.965.914 4.822 3.406 5.886 5.537.464.928.18 2.053-.686 2.624-1.887 1.24-3.838 1.778-5.607 1.975-1.208.135-2.422-.06-3.597-.372L9.276 20.93c-1.507-.402-2.947-1.075-4.156-2.043Z" fill="url(#e)"/><path d="M5.12 18.887c-1.609-1.289-2.607-2.82-3.246-4.123-.441-.899-.079-1.856.762-2.4 2.68-1.961 5.952-2.266 8.172-1.883l12.695 3.406c2.965.914 4.822 3.406 5.886 5.537.464.928.18 2.053-.686 2.624-1.887 1.24-3.838 1.778-5.607 1.975-1.208.135-2.422-.06-3.597-.372L9.276 20.93c-1.507-.402-2.947-1.075-4.156-2.043Z" fill="url(#f)"/><circle cx="20.686" cy="9.773" r=".969" fill="url(#g)"/><ellipse cx="4.438" cy="12.105" rx="1.251" ry=".373" transform="rotate(-28.067 4.438 12.105)" fill="url(#h)"/><ellipse cx="7.2" cy="12.841" rx="1.277" ry=".655" transform="rotate(-19.675 7.2 12.841)" fill="url(#i)"/><ellipse cx="11.312" cy="13.967" rx="1.285" ry=".842" transform="rotate(-3.605 11.312 13.967)" fill="url(#j)"/><ellipse cx="16.152" cy="15.267" rx="1.285" ry=".894" transform="rotate(13.066 16.152 15.267)" fill="url(#k)"/><ellipse cx="21.015" cy="16.572" rx="1.285" ry=".847" transform="rotate(35.225 21.015 16.572)" fill="url(#l)"/><ellipse cx="25.125" cy="17.657" rx="1.285" ry=".654" transform="rotate(49.282 25.125 17.657)" fill="url(#m)"/><ellipse cx="27.87" cy="18.384" rx="1.265" ry=".355" transform="rotate(57.814 27.87 18.384)" fill="url(#n)"/><path d="M1.874 14.764c.64 1.303 1.637 2.834 3.246 4.123 1.209.968 2.65 1.641 4.156 2.043L19.5 23.65c1.175.313 2.39.508 3.597.373 1.77-.197 3.72-.735 5.607-1.975.46-.304.757-.764.863-1.268L1.8 13.36c-.168.438-.16.93.074 1.404Z" fill="url(#o)"/><path d="M1.874 14.764c.64 1.303 1.637 2.834 3.246 4.123 1.209.968 2.65 1.641 4.156 2.043L19.5 23.65c1.175.313 2.39.508 3.597.373 1.77-.197 3.72-.735 5.607-1.975.46-.304.757-.764.863-1.268L1.8 13.36c-.168.438-.16.93.074 1.404Z" fill="url(#p)"/><path d="M1.874 14.764c.64 1.303 1.637 2.834 3.246 4.123 1.209.968 2.65 1.641 4.156 2.043L19.5 23.65c1.175.313 2.39.508 3.597.373 1.77-.197 3.72-.735 5.607-1.975.46-.304.757-.764.863-1.268L1.8 13.36c-.168.438-.16.93.074 1.404Z" fill="url(#q)"/><path d="M1.874 14.764c.64 1.303 1.637 2.834 3.246 4.123 1.209.968 2.65 1.641 4.156 2.043L19.5 23.65c1.175.313 2.39.508 3.597.373 1.77-.197 3.72-.735 5.607-1.975.46-.304.757-.764.863-1.268L1.8 13.36c-.168.438-.16.93.074 1.404Z" fill="url(#r)"/><defs><radialGradient id="a" cx="0" cy="0" r="1" gradientUnits="userSpaceOnUse" gradientTransform="rotate(107.317 -.17 18.52) scale(17.2179 12.9134)"><stop stop-color="#FFE940"/><stop offset="1" stop-color="#EAC82D"/></radialGradient><radialGradient id="d" cx="0" cy="0" r="1" gradientUnits="userSpaceOnUse" gradientTransform="rotate(-139.399 12.633 3.07) scale(9.13867)"><stop stop-color="#66F5FF"/><stop offset="1" stop-color="#3BA9E3"/></radialGradient><radialGradient id="e" cx="0" cy="0" r="1" gradientUnits="userSpaceOnUse" gradientTransform="matrix(-4.62496 -21.62506 62.2698 -13.31766 22.648 20.07)"><stop stop-color="#F7F6F8"/><stop offset="1" stop-color="#808081"/></radialGradient><radialGradient id="f" cx="0" cy="0" r="1" gradientUnits="userSpaceOnUse" gradientTransform="rotate(154.243 8.028 7.274) scale(15.7965 54.0343)"><stop offset=".454" stop-color="#706F70" stop-opacity="0"/><stop offset=".927" stop-color="#706F70"/></radialGradient><radialGradient id="g" cx="0" cy="0" r="1" gradientUnits="userSpaceOnUse" gradientTransform="rotate(-31.688 28.043 -29.578) scale(1.89839 4.00511)"><stop offset=".209" stop-color="#fff" stop-opacity="0"/><stop offset="1" stop-color="#fff"/></radialGradient><radialGradient id="h" cx="0" cy="0" r="1" gradientUnits="userSpaceOnUse" gradientTransform="matrix(-.06058 .84422 -1.68788 -.12111 4.508 11.704)"><stop offset=".45" stop-color="#473B51"/><stop offset="1" stop-color="#383838"/></radialGradient><radialGradient id="i" cx="0" cy="0" r="1" gradientUnits="userSpaceOnUse" gradientTransform="matrix(.67966 1.02292 -1.22792 .81587 6.588 12.169)"><stop stop-color="#5A5162"/><stop offset="1" stop-color="#372C40"/></radialGradient><radialGradient id="j" cx="0" cy="0" r="1" gradientUnits="userSpaceOnUse" gradientTransform="matrix(1.5629 1.19042 -1.33636 1.75452 10.425 13.391)"><stop stop-color="#655771"/><stop offset="1" stop-color="#32273C"/></radialGradient><radialGradient id="k" cx="0" cy="0" r="1" gradientUnits="userSpaceOnUse" gradientTransform="matrix(2.79283 .22584 -.21054 2.60363 14.857 15.064)"><stop stop-color="#655771"/><stop offset="1" stop-color="#32273C"/></radialGradient><radialGradient id="l" cx="0" cy="0" r="1" gradientUnits="userSpaceOnUse" gradientTransform="matrix(2.2777 -.56684 .68624 2.7575 20.016 16.96)"><stop stop-color="#6D5A7E"/><stop offset="1" stop-color="#3E2D4C"/></radialGradient><radialGradient id="m" cx="0" cy="0" r="1" gradientUnits="userSpaceOnUse" gradientTransform="matrix(.0684 -1.22391 1.71863 .09605 25.171 18.285)"><stop stop-color="#736282"/><stop offset="1" stop-color="#4B385B"/></radialGradient><radialGradient id="n" cx="0" cy="0" r="1" gradientUnits="userSpaceOnUse" gradientTransform="matrix(.064 -.86436 1.28151 .0949 27.891 18.79)"><stop stop-color="#746383"/><stop offset="1" stop-color="#564366"/></radialGradient><radialGradient id="o" cx="0" cy="0" r="1" gradientUnits="userSpaceOnUse" gradientTransform="matrix(-12.31248 -8.0589 4.06583 -6.21181 26.523 24.067)"><stop stop-color="#7B7180"/><stop offset="1" stop-color="#817A86"/></radialGradient><radialGradient id="p" cx="0" cy="0" r="1" gradientUnits="userSpaceOnUse" gradientTransform="rotate(167.056 8.882 10.254) scale(15.9041 41.4161)"><stop offset=".632" stop-color="#817A82" stop-opacity="0"/><stop offset="1" stop-color="#817A82"/></radialGradient><radialGradient id="q" cx="0" cy="0" r="1" gradientUnits="userSpaceOnUse" gradientTransform="rotate(15.815 -51.932 58.894) scale(15.1355 2.11479)"><stop stop-color="#B8B2BD"/><stop offset="1" stop-color="#B8B2BD" stop-opacity="0"/></radialGradient><radialGradient id="r" cx="0" cy="0" r="1" gradientUnits="userSpaceOnUse" gradientTransform="rotate(-80.239 21.51 3.453) scale(4.05512 11.8053)"><stop stop-color="#9F8A7A"/><stop offset="1" stop-color="#9F8A7A" stop-opacity="0"/></radialGradient><linearGradient id="b" x1="14.28" y1="22.188" x2="14.147" y2="22.695" gradientUnits="userSpaceOnUse"><stop stop-color="#F9D230"/><stop offset="1" stop-color="#F9D230" stop-opacity="0"/></linearGradient><filter id="c" x="10.382" y="6.336" width="13.359" height="13.109" filterUnits="userSpaceOnUse" color-interpolation-filters="sRGB"><feFlood flood-opacity="0" result="BackgroundImageFix"/><feBlend in="SourceGraphic" in2="BackgroundImageFix" result="shape"/><feColorMatrix in="SourceAlpha" values="0 0 0 0 0 0 0 0 0 0 0 0 0 0 0 0 0 0 127 0" result="hardAlpha"/><feOffset dx=".5" dy=".25"/><feGaussianBlur stdDeviation=".5"/><feComposite in2="hardAlpha" operator="arithmetic" k2="-1" k3="1"/><feColorMatrix values="0 0 0 0 0.360784 0 0 0 0 0.623529 0 0 0 0 0.815686 0 0 0 1 0"/><feBlend in2="shape" result="effect1_innerShadow_18_13115"/></filter></defs></svg>
